src/static/iconos/alimento-maiz.svg

<svg width="55" height="55" viewBox="0 0 55 55" fill="none" xmlns="http://www.w3.org/2000/svg">
<path d="M0 11C0 4.92487 4.92487 0 11 0H44C50.0751 0 55 4.92487 55 11V44C55 50.0751 50.0751 55 44 55H11C4.92487 55 0 50.0751 0 44V11Z" fill="#89AB92"/>
<path d="M10.5646 1.79267C8.561 4.70348 7.35852 7.41319 7.03647 9.62071L9.60793 13.827L12.6828 10.2316C12.776 7.95288 12.093 5.00265 10.5646 1.79224V1.79267ZM50.7572 2.10816C47.6999 3.87311 45.4518 5.80079 44.2111 7.65382L44.7213 12.5617L49.0452 10.6348C50.1076 8.61771 50.7573 5.66222 50.7573 2.10816H50.7572ZM40.9012 5.03863C39.8106 7.29836 39.0965 9.42574 38.736 11.3028L40.7099 17.4996L42.8347 13.8204L42.1365 7.13658H42.1397C41.7721 6.44994 41.3607 5.7502 40.9011 5.03863H40.9012ZM2.92758 8.67776C2.91415 11.1876 3.18464 13.4153 3.6661 15.2642L8.11068 20.0073L8.44638 15.7743L4.94174 10.0407L4.94496 10.0373C4.31869 9.57678 3.6473 9.12217 2.92758 8.67776ZM17.1979 9.80913C16.294 10.1855 15.448 10.584 14.6634 11.0009L10.4471 15.9391L10.1147 20.1687L15.5329 15.9691C16.2539 14.2607 16.8316 12.1811 17.1979 9.80913ZM36.2352 12.1322C33.6545 18.3724 34.4993 22.6445 37.081 23.7875L39.3537 19.8532L37.2489 13.2534C36.9295 12.8817 36.5927 12.5076 36.235 12.1321L36.2352 12.1322ZM51.9221 12.1557C51.4333 12.1526 50.9585 12.1647 50.4955 12.1857L44.5734 14.8242L42.4486 18.5066L49.1456 17.0398C50.531 15.8077 51.9483 14.1796 53.2981 12.1957C52.83 12.1725 52.37 12.1583 51.9218 12.1555L51.9221 12.1557ZM27.6346 13.0924C25.1381 15.5886 23.4632 18.0341 22.7437 20.1452L24.5093 24.7543L28.1853 21.7733C28.6896 19.5493 28.5544 16.5251 27.6346 13.0924ZM1.7627 17.0865C2.11504 23.8294 4.71486 27.3249 7.53662 27.248L7.89584 22.7126L3.16251 17.6638C2.71402 17.4657 2.24771 17.272 1.7627 17.0865ZM17.1477 18.3085C16.454 18.4539 15.7909 18.6195 15.1604 18.7986L9.8999 22.874L9.54412 27.3589C12.3899 28.1656 15.6844 25.1495 17.1474 18.3086L17.1477 18.3085ZM18.8729 18.4764C18.4045 20.9401 18.2659 23.1774 18.403 25.0828L21.9144 30.5613L23.0122 26.4591L20.6052 20.1817H20.6085C20.0765 19.6145 19.5001 19.0439 18.8731 18.4764H18.8729ZM47.5983 19.4365L41.0925 20.8564L38.8435 24.7504C41.0652 26.705 45.3359 25.3987 49.5992 19.8493C48.9103 19.6826 48.2435 19.5461 47.5983 19.4365ZM32.7002 22.179C31.7429 22.3852 30.8414 22.6258 29.9946 22.8941L24.949 26.9793L23.8511 31.0818L29.9408 27.9361C30.9606 26.3867 31.9091 24.446 32.7001 22.1791L32.7002 22.179ZM49.364 24.8713C46.5872 27.0545 44.6325 29.282 43.6674 31.2932L44.8727 36.0769L48.8774 33.5557C49.6429 31.4083 49.8695 28.3899 49.364 24.8713ZM36.1144 25.7946C32.4153 34.1276 29.7342 42.8811 29.35 52.9755H31.361C31.7432 43.2225 34.3229 34.7753 37.9472 26.6103L36.1143 25.7945L36.1144 25.7946ZM16.2011 26.5364C15.3231 33.2339 17.2446 37.1404 20.0346 37.574L21.213 33.1833L17.4733 27.3556C17.0683 27.0796 16.6447 26.8072 16.2009 26.5365L16.2011 26.5364ZM40.0219 29.1717C39.2642 31.5611 38.8599 33.7661 38.7696 35.6742L41.6062 41.5388L43.1839 37.5941L41.5425 31.075H41.549C41.0871 30.4468 40.5786 29.8117 40.0217 29.1718L40.0219 29.1717ZM7.52996 29.3363C6.59926 37.3482 6.65662 45.217 8.83922 52.9757H10.9275C8.68485 45.3733 8.58957 37.6123 9.52414 29.5679L7.53018 29.3363H7.52996ZM31.1058 30.528C30.3955 30.5452 29.7144 30.586 29.0614 30.6489L23.1497 33.7068L21.9849 38.0475C24.6371 39.3613 28.4235 36.9927 31.1056 30.528H31.1058ZM53.3119 34.4959C52.3373 34.5865 51.4144 34.7163 50.5425 34.8819L45.0473 38.3427L43.4695 42.2805L49.8879 39.8836C51.0846 38.4664 52.257 36.6529 53.3119 34.4959ZM36.4133 36.8591C34.7453 43.4052 36.1882 47.5143 38.9074 48.2759L40.596 44.0564L37.5781 37.8227C37.2097 37.5004 36.8206 37.1798 36.4133 36.8591ZM19.6854 39.6086C18.3239 44.0379 17.2942 48.476 16.8018 52.9757H18.8227C19.3068 48.7087 20.2933 44.4647 21.6054 40.1958L19.6853 39.6085L19.6854 39.6086ZM48.6893 42.4719L42.4588 44.8017L40.787 48.9777C43.2637 50.5996 47.3046 48.6978 50.737 42.5961C50.0286 42.5288 49.3459 42.4884 48.6893 42.472V42.4719ZM38.2962 50.3841C38.0949 51.2126 37.9541 52.0767 37.9035 52.9757H39.9109C39.9592 52.2575 40.0774 51.5571 40.2467 50.8609L38.2963 50.384L38.2962 50.3841Z" fill="#FED283"/>
</svg>

<svg xmlns="http://www.w3.org/2000/svg" width="55" height="55" fill="none" viewBox="0 0 55 55"><path fill="#89ab92" d="M0 11C0 4.925 4.925 0 11 0h33c6.075 0 11 4.925 11 11v33c0 6.075-4.925 11-11 11H11C4.925 55 0 50.075 0 44z"/><path fill="#fed283" d="M10.565 1.793C8.56 4.703 7.359 7.413 7.036 9.62l2.572 4.206 3.075-3.595c.093-2.28-.59-5.23-2.118-8.44m40.192.315c-3.057 1.765-5.305 3.693-6.546 5.546l.51 4.908 4.324-1.927c1.063-2.017 1.712-4.973 1.712-8.527m-9.856 2.93c-1.09 2.26-1.805 4.388-2.165 6.265L40.71 17.5l2.125-3.68-.699-6.683h.004a30 30 0 0 0-1.24-2.098M2.928 8.679c-.014 2.51.257 4.737.738 6.586l4.445 4.743.335-4.233-3.504-5.733.003-.004a30 30 0 0 0-2.017-1.36m14.27 1.131a30 30 0 0 0-2.535 1.192l-4.216 4.938-.332 4.23 5.418-4.2c.72-1.708 1.299-3.788 1.665-6.16m19.037 2.323c-2.58 6.24-1.736 10.513.846 11.656l2.273-3.935-2.105-6.6q-.478-.557-1.014-1.12m15.687.024q-.733-.003-1.426.03l-5.923 2.638-2.124 3.683 6.697-1.467c1.385-1.232 2.802-2.86 4.152-4.844a32 32 0 0 0-1.376-.04m-24.287.936c-2.497 2.497-4.172 4.942-4.891 7.053l1.765 4.61 3.676-2.982c.505-2.224.37-5.248-.55-8.68M1.763 17.087c.352 6.742 2.952 10.238 5.774 10.161l.359-4.535-4.733-5.05a30 30 0 0 0-1.4-.576m15.385 1.221q-1.041.22-1.988.49L9.9 22.875l-.356 4.485c2.846.807 6.14-2.21 7.603-9.05m1.725.168c-.469 2.464-.607 4.701-.47 6.607l3.511 5.478 1.098-4.102-2.407-6.277h.003a30 30 0 0 0-1.735-1.706m28.725.96-6.505 1.42-2.25 3.894c2.222 1.955 6.493.649 10.756-4.9a30 30 0 0 0-2-.414M32.7 22.18q-1.436.311-2.705.715l-5.046 4.085-1.098 4.103 6.09-3.146c1.02-1.55 1.968-3.49 2.76-5.757m16.664 2.692c-2.777 2.184-4.731 4.411-5.697 6.422l1.206 4.784 4.004-2.521c.766-2.148.992-5.166.487-8.685m-13.25.924c-3.699 8.333-6.38 17.086-6.764 27.18h2.011c.382-9.753 2.962-18.2 6.586-26.365zm-19.913.741c-.878 6.698 1.044 10.604 3.834 11.038l1.178-4.39-3.74-5.828a30 30 0 0 0-1.272-.82m23.82 2.636c-.757 2.39-1.161 4.594-1.251 6.502l2.836 5.865 1.578-3.945-1.642-6.519h.007a30 30 0 0 0-1.527-1.903m-32.491.164c-.93 8.012-.873 15.881 1.31 23.64h2.088c-2.245-7.604-2.34-15.365-1.406-23.409zm23.576 1.192q-1.065.026-2.045.12l-5.911 3.059-1.165 4.34c2.652 1.314 6.439-1.054 9.12-7.519m22.206 3.968q-1.462.136-2.77.386l-5.495 3.46-1.578 3.939 6.419-2.397c1.197-1.418 2.369-3.231 3.424-5.388M36.414 36.86c-1.668 6.546-.225 10.655 2.494 11.417l1.689-4.22-3.018-6.233a29 29 0 0 0-1.165-.964m-16.728 2.75c-1.361 4.429-2.39 8.867-2.883 13.367h2.02c.485-4.267 1.471-8.511 2.783-12.78zm29.004 2.863-6.23 2.33-1.672 4.176c2.477 1.622 6.518-.28 9.95-6.382a29 29 0 0 0-2.048-.124m-10.393 7.912a14.4 14.4 0 0 0-.392 2.592h2.007c.048-.718.166-1.419.336-2.115z"/></svg>
